X:1
T:Adoration (Luard-Selby), 87.87 D
T:Adoration (Luard-Selby), 87.87 D
T:Bertram Luard-Selby, 1904
T:Public Domain Courtesy of the Cyber Hymnal™
C:Bertram Luard-Selby, 1904
Z:Public Domain
Z:Courtesy of the Cyber Hymnal™
%%score ( 1 2 ) ( 3 4 )
L:1/8
Q:1/4=115
M:none
K:Ab
V:1 treble 
V:2 treble 
V:3 bass 
V:4 bass 
V:1
 [CA]2 G2 (FG) [EA]2 | B3 z A [EA]2 [EG]2 | [Ec]2 B2 AB [_Gc]2 | d2 c2 [GB]4 | %4
 [GB]2 (cd) [Ae]2 [_Ge]2 | [Fe]2 (dc) [Fd]2 [Ed]2 | c3 z =d [Ge]2 [FA]2 | [EG]2 [=DF]2 [B,E]4 | %8
 [DF]3 [DF] [DF]2 [EF]2 | [DF]2 [EG]2 [EA]2 [EA]2 | [EA]2 A2 ([DB][Ec]) [Fd]2 | %11
 [_Ge]2 [GA]2 [Ff]4 | [Ad]2 [Bd]2 ([Ad][_Ge]) [Ff]2 | [Ge]2 [Gd]2 [Ac]2 [Ge]2 | %14
 [FA]2 [Ad]2 (cB) [FA]2 | [FA]2 [EG]2 [EA]4 |] %16
V:2
 x2 (DE) F2 x2 | (DE) F2 x5 | x2 (F_G) A2 x2 | (FG) (AF) x4 | x2 _G2 x4 | x2 F2 x4 | E2 A2 x5 | %7
 x8 | x8 | x8 | x2 (FE) x4 | x8 | x8 | x8 | x4 G2 x2 | x8 |] %16
V:3
 [A,,A,]2 A,2 (A,B,) [C,C]2 | D3 z C [E,C]2 [E,B,]2 | [C,E]2 D2 (CD) [E,E]2 | [D,F]2 (E=D) [G,E]4 | %4
 E2 [DE]2 [CE]2 [B,D]2 | [=A,C]2 (B,A,) B,2 [G,B,]2 | ([A,C][G,B,]) [F,A,]2 [G,B,]2 [A,C]2 x | %7
 B,2 (B,A,) [E,G,]4 | [D,A,]3 [D,A,] [D,A,]2 [C,=A,]2 | [B,,B,]2 (B,D) (DB,) [A,C]2 | %10
 C2 (DC) [=G,B,]2 [F,A,]2 | [E,B,]2 [A,C]2 [D,D]4 | [F,D]2 [_G,D]2 D2 [D,D]2 | %13
 [E,C]2 [=E,B,]2 [F,A,]2 [C,A,]2 | [D,A,]2 [B,,F]2 (ED) C2 | [D,B,]2 [E,B,]2 [A,,C]4 |] %16
V:4
 x2 (B,,C,) D,2 x2 | (B,,C,) D,2 x5 | x2 (D,E,) F,2 x2 | x2 A,2 x4 | E2 x6 | x2 F,2 B,2 x2 | x9 | %7
 B,2 B,,2 x4 | x8 | x2 E,2 A,2 x2 | (A,_G,) F,2 x4 | x8 | x4 (F,E,) x2 | x8 | x4 E,2 (F,E,) | x8 |] %16

